_includes/icons/ios-word.svg

<svg fill="#666" height="50" viewBox="0 0 50 50" width="50" xmlns="http://www.w3.org/2000/svg"><path d="m7 2v46h36v-32.589844l-13.816406-13.410156zm2 2h19v13h13v29h-32zm21 1.578125 9.707031 9.421875h-9.707031zm3.386719 16.292969c-.886719-.035156-2.140625.5-2.699219 1.824219-.542969 1.289062-.910156 3.511718-1.253906 5.683593-.175781 1.085938-.324219 2.136719-.445313 2.964844-.121093.832031-.222656 1.5-.246093 1.621094 0 .003906-.003907.011719-.003907.019531-.066406.34375-.207031.621094-.363281.78125-.15625.164063-.289062.234375-.542969.234375-.570312 0-.835937-.234375-.894531-.921875 0-.019531 0-.039062-.003906-.058594-.074219-.507812-.941406-7.3125-.941406-7.3125-.0625-.503906-.492188-.878906-1-.875-.507813.003907-.929688.386719-.988282.890625 0 0-.210937 1.902344-.433593 3.882813-.222657 1.980469-.476563 4.148437-.503907 4.332031-.003906.019531-.003906.039063-.007812.058594-.058594.683594-.324219.921875-.890625.921875-.257813 0-.386719-.070313-.542969-.230469-.15625-.164062-.300781-.445312-.363281-.789062-.003906-.003907-.003906-.011719-.007813-.015625-.195312-.96875-.5625-2.390625-.9375-4.554688v-.003906c-.1875-1.035156-.472656-1.769531-1.050781-2.269531-.574219-.5-1.414062-.523438-1.941406-.328125-1.058594.386718-1.609375 1.238281-1.609375 1.238281-.34375.433594-.269531 1.0625.164062 1.402344.433594.34375 1.0625.269531 1.40625-.164063 0 0 .480469-.464844.695313-.570312.039062.046875.234375.292968.367187 1.042968.386719 2.230469.773438 3.746094.949219 4.605469v-.015625c.121094.664063.402344 1.300781.886719 1.804688.480469.503906 1.199219.847656 1.984375.847656 1.507812 0 2.753906-1.234375 2.882812-2.746094l-.003906.058594c.007813-.066406.054688-.5.070313-.621094.296875 1.320313 1.34375 2.390625 2.714843 2.390625.785157 0 1.503907-.34375 1.984375-.847656.484375-.503906.761719-1.136719.886719-1.796875.070313-.339844.144531-.902344.265625-1.726563.117188-.832031.269531-1.867187.4375-2.9375.339844-2.132812.820313-4.492187 1.125-5.222656.292969-.691406.457031-.613281.777344-.601562.320312.011718.648437.175781.648437.175781.484375.265625 1.09375.089844 1.363282-.390625.265625-.484375.09375-1.09375-.390625-1.359375 0 0-.660157-.390625-1.542969-.421875z"/></svg>

<svg xmlns="http://www.w3.org/2000/svg" viewBox="0 0 50 50" width="50" height="50" fill="#666"><path d="M 7 2 L 7 48 L 43 48 L 43 15.410156 L 29.183594 2 Z M 9 4 L 28 4 L 28 17 L 41 17 L 41 46 L 9 46 Z M 30 5.578125 L 39.707031 15 L 30 15 Z M 33.386719 21.871094 C 32.5 21.835938 31.246094 22.371094 30.6875 23.695313 C 30.144531 24.984375 29.777344 27.207031 29.433594 29.378906 C 29.257813 30.464844 29.109375 31.515625 28.988281 32.34375 C 28.867188 33.175781 28.765625 33.84375 28.742188 33.964844 C 28.742188 33.96875 28.738281 33.976563 28.738281 33.984375 C 28.671875 34.328125 28.53125 34.605469 28.375 34.765625 C 28.21875 34.929688 28.085938 35 27.832031 35 C 27.261719 35 26.996094 34.765625 26.9375 34.078125 C 26.9375 34.058594 26.9375 34.039063 26.933594 34.019531 C 26.859375 33.511719 25.992188 26.707031 25.992188 26.707031 C 25.929688 26.203125 25.5 25.828125 24.992188 25.832031 C 24.484375 25.835938 24.0625 26.21875 24.003906 26.722656 C 24.003906 26.722656 23.792969 28.625 23.570313 30.605469 C 23.347656 32.585938 23.09375 34.753906 23.066406 34.9375 C 23.0625 34.957031 23.0625 34.976563 23.058594 34.996094 C 23 35.679688 22.734375 35.917969 22.167969 35.917969 C 21.910156 35.917969 21.78125 35.847656 21.625 35.6875 C 21.46875 35.523438 21.324219 35.242188 21.261719 34.898438 C 21.257813 34.894531 21.257813 34.886719 21.253906 34.882813 C 21.058594 33.914063 20.691406 32.492188 20.316406 30.328125 C 20.316406 30.328125 20.316406 30.324219 20.316406 30.324219 C 20.128906 29.289063 19.84375 28.554688 19.265625 28.054688 C 18.691406 27.554688 17.851563 27.53125 17.324219 27.726563 C 16.265625 28.113281 15.714844 28.964844 15.714844 28.964844 C 15.371094 29.398438 15.445313 30.027344 15.878906 30.367188 C 16.3125 30.710938 16.941406 30.636719 17.285156 30.203125 C 17.285156 30.203125 17.765625 29.738281 17.980469 29.632813 C 18.019531 29.679688 18.214844 29.925781 18.347656 30.675781 C 18.734375 32.90625 19.121094 34.421875 19.296875 35.28125 L 19.296875 35.265625 C 19.417969 35.929688 19.699219 36.566406 20.183594 37.070313 C 20.664063 37.574219 21.382813 37.917969 22.167969 37.917969 C 23.675781 37.917969 24.921875 36.683594 25.050781 35.171875 L 25.046875 35.230469 C 25.054688 35.164063 25.101563 34.730469 25.117188 34.609375 C 25.414063 35.929688 26.460938 37 27.832031 37 C 28.617188 37 29.335938 36.65625 29.816406 36.152344 C 30.300781 35.648438 30.578125 35.015625 30.703125 34.355469 C 30.773438 34.015625 30.847656 33.453125 30.96875 32.628906 C 31.085938 31.796875 31.238281 30.761719 31.40625 29.691406 C 31.746094 27.558594 32.226563 25.199219 32.53125 24.46875 C 32.824219 23.777344 32.988281 23.855469 33.308594 23.867188 C 33.628906 23.878906 33.957031 24.042969 33.957031 24.042969 C 34.441406 24.308594 35.050781 24.132813 35.320313 23.652344 C 35.585938 23.167969 35.414063 22.558594 34.929688 22.292969 C 34.929688 22.292969 34.269531 21.902344 33.386719 21.871094 Z"/></svg>
